Costumes/cloud-d.svg

<svg version="1.1" width="202" height="40" viewBox="-1 -1 202 40" xmlns="http://www.w3.org/2000/svg" xmlns:xlink="http://www.w3.org/1999/xlink">
  <!-- Exported by Scratch - http://scratch.mit.edu/ -->
  <g id="ID0.22178661404177547" transform="matrix(0.9024999737739563, 0, 0, 0.9024999737739563, -0.15, -0.05)">
    <path id="ID0.942875714506954" fill="#E3DEEE" d="M 579.300 828.300 C 577.100 840.200 599.500 855 652.400 857.600 C 698.500 859.900 787 863.200 822.900 860.900 C 858.800 858.600 913 853 906.300 829.200 C 902.300 815.200 870.700 816.700 852.800 821.100 C 833.200 825.900 821.800 830.100 821 829.400 C 820 828.500 820.900 820.800 803.400 823.600 C 784.500 826.600 756.500 838.700 750.500 841 C 720.800 827 676.900 791 654.900 800.300 C 640.500 806.400 647.900 825.900 645.600 827.300 C 643.300 828.700 623.600 818.900 606.900 818 C 593.300 817.300 580.700 820.800 579.300 828.300 Z " transform="matrix(0.6131325364112854, 0, 0, 0.6131325364112854, -354.35, -488.75)"/>
    <path id="ID0.9047978580929339" fill="#FFFFFF" stroke="#E3DEEE" d="M 887.600 848.200 C 901.200 843.100 907.200 835.100 905 826.600 C 897.900 815.500 869.400 817.100 852.700 821.200 C 833.100 826 821.700 830.200 820.900 829.500 C 819.900 828.600 820.800 820.900 803.300 823.700 C 784.400 826.700 756.400 838.800 750.400 841.100 C 770.700 852 783.300 855.100 803.700 857.400 C 831.100 860.300 872.500 853.700 887.600 848.200 Z " transform="matrix(0.6131325364112854, 0, 0, 0.6131325364112854, -354.35, -488.75)"/>
  </g>
</svg>

<?xml version="1.0" encoding="UTF-8" standalone="no"?>
<svg
   version="1.1"
   width="181.34113"
   height="34.802631"
   viewBox="-1 -1 181.34113 34.802631"
   id="svg5"
   sodipodi:docname="cloud-d.svg"
   xmlns:inkscape="http://www.inkscape.org/namespaces/inkscape"
   xmlns:sodipodi="http://sodipodi.sourceforge.net/DTD/sodipodi-0.dtd"
   xmlns="http://www.w3.org/2000/svg"
   xmlns:svg="http://www.w3.org/2000/svg">
  <defs
     id="defs9" />
  <sodipodi:namedview
     id="namedview7"
     pagecolor="#ffffff"
     bordercolor="#000000"
     borderopacity="0.25"
     inkscape:showpageshadow="2"
     inkscape:pageopacity="0.0"
     inkscape:pagecheckerboard="0"
     inkscape:deskcolor="#d1d1d1" />
  <!-- Exported by Scratch - http://scratch.mit.edu/ -->
  <g
     id="ID0.22178661404177547"
     transform="matrix(0.90249997,0,0,0.90249997,-1.6746411,-1.9127025)">
    <path
       id="ID0.942875714506954"
       fill="#e3deee"
       d="m 579.3,828.3 c -2.2,11.9 20.2,26.7 73.1,29.3 46.1,2.3 134.6,5.6 170.5,3.3 35.9,-2.3 90.1,-7.9 83.4,-31.7 -4,-14 -35.6,-12.5 -53.5,-8.1 -19.6,4.8 -31,9 -31.8,8.3 -1,-0.9 -0.1,-8.6 -17.6,-5.8 -18.9,3 -46.9,15.1 -52.9,17.4 -29.7,-14 -73.6,-50 -95.6,-40.7 -14.4,6.1 -7,25.6 -9.3,27 -2.3,1.4 -22,-8.4 -38.7,-9.3 -13.6,-0.7 -26.2,2.8 -27.6,10.3 z"
       transform="matrix(0.61313254,0,0,0.61313254,-354.35,-488.75)" />
    <path
       id="ID0.9047978580929339"
       fill="#ffffff"
       stroke="#e3deee"
       d="m 887.6,848.2 c 13.6,-5.1 19.6,-13.1 17.4,-21.6 -7.1,-11.1 -35.6,-9.5 -52.3,-5.4 -19.6,4.8 -31,9 -31.8,8.3 -1,-0.9 -0.1,-8.6 -17.6,-5.8 -18.9,3 -46.9,15.1 -52.9,17.4 20.3,10.9 32.9,14 53.3,16.3 27.4,2.9 68.8,-3.7 83.9,-9.2 z"
       transform="matrix(0.61313254,0,0,0.61313254,-354.35,-488.75)" />
  </g>
</svg>
